recipes/franz-custom-website/icon.svg

<svg height="80" viewBox="0 0 80 80" width="80" xmlns="http://www.w3.org/2000/svg"><path d="m57.44 48c.32-2.64.56-5.28.56-8s-.24-5.36-.56-8h13.52c.64 2.56 1.04 5.24 1.04 8s-.4 5.44-1.04 8zm-7.08 22.24c2.4-4.44 4.24-9.24 5.52-14.24h11.8c-3.84 6.6-9.96 11.72-17.32 14.24zm-1-22.24h-18.72c-.4-2.64-.64-5.28-.64-8s.24-5.4.64-8h18.72c.36 2.6.64 5.28.64 8s-.28 5.36-.64 8zm-9.36 23.84c-3.32-4.8-6-10.12-7.64-15.84h15.28c-1.64 5.72-4.32 11.04-7.64 15.84zm-16-47.84h-11.68c3.8-6.64 9.96-11.76 17.28-14.24-2.4 4.44-4.2 9.24-5.6 14.24zm-11.68 32h11.68c1.4 5 3.2 9.8 5.6 14.24-7.32-2.52-13.48-7.64-17.28-14.24zm-3.28-8c-.64-2.56-1.04-5.24-1.04-8s.4-5.44 1.04-8h13.52c-.32 2.64-.56 5.28-.56 8s.24 5.36.56 8zm30.96-39.88c3.32 4.8 6 10.16 7.64 15.88h-15.28c1.64-5.72 4.32-11.08 7.64-15.88zm27.68 15.88h-11.8c-1.28-5-3.12-9.8-5.52-14.24 7.36 2.52 13.48 7.6 17.32 14.24zm-27.68-24c-22.12 0-40 18-40 40 0 10.6086596 4.21427361 20.7828161 11.7157288 28.2842712 7.5014551 7.5014552 17.6756116 11.7157288 28.2842712 11.7157288 22.09139 0 40-17.90861 40-40 0-10.6086596-4.2142736-20.7828161-11.7157288-28.2842712-7.5014551-7.50145519-17.6756116-11.7157288-28.2842712-11.7157288z" fill="#0099e1"/></svg>

<?xml version="1.0" encoding="UTF-8"?>
<svg width="80px" height="80px" viewBox="0 0 80 80" version="1.1" xmlns="http://www.w3.org/2000/svg" xmlns:xlink="http://www.w3.org/1999/xlink">
    <!-- Generator: Sketch 54.1 (76490) - https://sketchapp.com -->
    <title>franz-custom-website</title>
    <desc>Created with Sketch.</desc>
    <g id="franz-custom-website" stroke="none" stroke-width="1" fill="none" fill-rule="evenodd">
        <g id="web" fill="#0099E1" fill-rule="nonzero">
            <path d="M57.44,48 C57.76,45.36 58,42.72 58,40 C58,37.28 57.76,34.64 57.44,32 L70.96,32 C71.6,34.56 72,37.24 72,40 C72,42.76 71.6,45.44 70.96,48 L57.44,48 Z M50.36,70.24 C52.76,65.8 54.6,61 55.88,56 L67.68,56 C63.84,62.6 57.72,67.72 50.36,70.24 L50.36,70.24 Z M49.36,48 L30.64,48 C30.24,45.36 30,42.72 30,40 C30,37.28 30.24,34.6 30.64,32 L49.36,32 C49.72,34.6 50,37.28 50,40 C50,42.72 49.72,45.36 49.36,48 L49.36,48 Z M40,71.84 C36.68,67.04 34,61.72 32.36,56 L47.64,56 C46,61.72 43.32,67.04 40,71.84 L40,71.84 Z M24,24 L12.32,24 C16.12,17.36 22.28,12.24 29.6,9.76 C27.2,14.2 25.4,19 24,24 L24,24 Z M12.32,56 L24,56 C25.4,61 27.2,65.8 29.6,70.24 C22.28,67.72 16.12,62.6 12.32,56 L12.32,56 Z M9.04,48 C8.4,45.44 8,42.76 8,40 C8,37.24 8.4,34.56 9.04,32 L22.56,32 C22.24,34.64 22,37.28 22,40 C22,42.72 22.24,45.36 22.56,48 L9.04,48 Z M40,8.12 C43.32,12.92 46,18.28 47.64,24 L32.36,24 C34,18.28 36.68,12.92 40,8.12 L40,8.12 Z M67.68,24 L55.88,24 C54.6,19 52.76,14.2 50.36,9.76 C57.72,12.28 63.84,17.36 67.68,24 L67.68,24 Z M40,0 C17.88,1.77635684e-15 0,18 0,40 C-8.8817842e-16,50.6086596 4.21427361,60.7828161 11.7157288,68.2842712 C19.2171839,75.7857264 29.3913404,80 40,80 C62.09139,80 80,62.09139 80,40 C80,29.3913404 75.7857264,19.2171839 68.2842712,11.7157288 C60.7828161,4.21427361 50.6086596,8.8817842e-16 40,0 Z" id="Shape"></path>
        </g>
    </g>
</svg>
